Desktop/project_createx/public/images/Maximize/calendar.svg

<svg width="20" height="20" viewBox="0 0 20 20" fill="none" xmlns="http://www.w3.org/2000/svg">
<path fill-rule="evenodd" clip-rule="evenodd" d="M6.24935 1.04199C6.70959 1.04199 7.08268 1.41509 7.08268 1.87533V2.292L12.916 2.29201V1.87533C12.916 1.41509 13.2891 1.04199 13.7493 1.04199C14.2096 1.04199 14.5827 1.41509 14.5827 1.87533V2.29202L15.6244 2.29202C17.4653 2.29202 18.9577 3.78441 18.9577 5.62535V15.6253C18.9577 17.4663 17.4653 18.9587 15.6243 18.9587L4.37435 18.9587C2.5334 18.9587 1.04102 17.4663 1.04102 15.6253L1.04102 7.50049L1.04102 5.62533C1.04102 3.78438 2.5334 2.29199 4.37436 2.292L5.41601 2.292V1.87533C5.41601 1.41509 5.78911 1.04199 6.24935 1.04199ZM5.41601 3.95867L4.37435 3.95866C3.45388 3.95866 2.70768 4.70485 2.70768 5.62533V6.66699H17.291V5.62535C17.291 4.70488 16.5448 3.95869 15.6244 3.95869L14.5827 3.95868V4.37533C14.5827 4.83556 14.2096 5.20866 13.7494 5.20866C13.2891 5.20866 12.916 4.83556 12.916 4.37533V3.95868L7.08268 3.95867V4.37533C7.08268 4.83556 6.70959 5.20866 6.24935 5.20866C5.78911 5.20866 5.41601 4.83556 5.41601 4.37533V3.95867ZM17.291 8.33366H2.70768L2.70768 15.6253C2.70768 16.5458 3.45387 17.292 4.37435 17.292L15.6243 17.292C16.5448 17.292 17.291 16.5458 17.291 15.6253V8.33366Z" fill="#1E212C"/>
</svg>

<svg xmlns="http://www.w3.org/2000/svg" width="20" height="20" fill="none"><path fill="#1E212C" fill-rule="evenodd" d="M6.25 1.042c.46 0 .833.373.833.833v.417h5.833v-.417a.833.833 0 1 1 1.667 0v.417h1.041a3.333 3.333 0 0 1 3.334 3.333v10a3.333 3.333 0 0 1-3.334 3.334H4.374a3.333 3.333 0 0 1-3.333-3.334v-10a3.333 3.333 0 0 1 3.333-3.333h1.042v-.417c0-.46.373-.833.833-.833m-.834 2.917H4.374c-.92 0-1.666.746-1.666 1.666v1.042H17.29V5.625c0-.92-.746-1.666-1.667-1.666h-1.041v.416a.833.833 0 0 1-1.667 0V3.96H7.083v.416a.833.833 0 0 1-1.667 0zm11.875 4.375H2.708v7.291c0 .92.746 1.667 1.666 1.667h11.25c.92 0 1.667-.746 1.667-1.667z" clip-rule="evenodd"/></svg>
